src/pos-icons/inbox-arrow-down.svg

<svg height="24" viewBox="0 0 24 24" width="24" xmlns="http://www.w3.org/2000/svg"><path d="m16 10h-2v-3h-4v3h-2l4 4m7 1h-4a3 3 0 0 1 -3 3 3 3 0 0 1 -3-3h-4v-10h14m0-2h-14c-1.11 0-2 .9-2 2v14a2 2 0 0 0 2 2h14a2 2 0 0 0 2-2v-14a2 2 0 0 0 -2-2z"/></svg>

<?xml version="1.0" encoding="UTF-8"?><!DOCTYPE svg PUBLIC "-//W3C//DTD SVG 1.1//EN" "http://www.w3.org/Graphics/SVG/1.1/DTD/svg11.dtd"><svg xmlns="http://www.w3.org/2000/svg" xmlns:xlink="http://www.w3.org/1999/xlink" version="1.1" id="mdi-inbox-arrow-down" width="24" height="24" viewBox="0 0 24 24"><path d="M16,10H14V7H10V10H8L12,14M19,15H15A3,3 0 0,1 12,18A3,3 0 0,1 9,15H5V5H19M19,3H5C3.89,3 3,3.9 3,5V19A2,2 0 0,0 5,21H19A2,2 0 0,0 21,19V5A2,2 0 0,0 19,3Z" /></svg>
